X:697
T:Mrs. Fraser, Cullen
R:Reel
C:William Marshall
B:The Athole Collection
M:C|
L:1/8
K:B_
F|~B2 dB fBdB|AFcF eFcF|~B2 dB fBdB|AFeA B2 ~B:|
d|fede fbab|gfed cBAF|fede fbab|agf=e f2 fd|fdgf ecfe|
dBed cBAF|~B2 dB fBdB|AfeA ~B2 B||

